app/assets/images/heroicons/micro/document-currency-rupee.svg

<svg width="16" height="16" viewBox="0 0 16 16" fill="none" xmlns="http://www.w3.org/2000/svg">
<path fill-rule="evenodd" clip-rule="evenodd" d="M2.5 3.5C2.5 2.67157 3.17157 2 4 2H8.87868C9.2765 2 9.65804 2.15804 9.93934 2.43934L13.0607 5.56066C13.342 5.84197 13.5 6.2235 13.5 6.62132V12.5C13.5 13.3284 12.8284 14 12 14H4C3.17157 14 2.5 13.3284 2.5 12.5V3.5ZM5.75002 5C5.33581 5 5.00002 5.33579 5.00002 5.75C5.00002 6.16421 5.33581 6.5 5.75002 6.5C6.44812 6.5 7.05075 6.90876 7.33161 7.5H5.75002C5.33581 7.5 5.00002 7.83579 5.00002 8.25C5.00002 8.66421 5.33581 9 5.75002 9H7.33161C7.05075 9.59124 6.44812 10 5.75002 10C5.44668 10 5.1732 10.1827 5.05711 10.463C4.94103 10.7432 5.00519 11.0658 5.21969 11.2803L6.71969 12.7803C7.01259 13.0732 7.48746 13.0732 7.78035 12.7803C8.07325 12.4874 8.07325 12.0126 7.78035 11.7197L7.21338 11.1527C8.05758 10.7263 8.69045 9.94239 8.91306 9H10.25C10.6642 9 11 8.66421 11 8.25C11 7.83579 10.6642 7.5 10.25 7.5H8.91306C8.82797 7.13981 8.68296 6.80277 8.48911 6.5H10.25C10.6642 6.5 11 6.16421 11 5.75C11 5.33579 10.6642 5 10.25 5H5.75002Z" fill="black"/>
</svg>

<svg xmlns="http://www.w3.org/2000/svg" viewBox="0 0 16 16" fill="currentColor" aria-hidden="true" data-slot="icon">
  <path fill-rule="evenodd" d="M2.5 3.5A1.5 1.5 0 0 1 4 2h4.879a1.5 1.5 0 0 1 1.06.44l3.122 3.12a1.5 1.5 0 0 1 .439 1.061V12.5A1.5 1.5 0 0 1 12 14H4a1.5 1.5 0 0 1-1.5-1.5v-9ZM5.75 5a.75.75 0 0 0 0 1.5c.698 0 1.3.409 1.582 1H5.75a.75.75 0 0 0 0 1.5h1.582c-.281.591-.884 1-1.582 1a.75.75 0 0 0-.53 1.28l1.5 1.5a.75.75 0 0 0 1.06-1.06l-.567-.567A3.256 3.256 0 0 0 8.913 9h1.337a.75.75 0 0 0 0-1.5H8.913a3.232 3.232 0 0 0-.424-1h1.761a.75.75 0 0 0 0-1.5h-4.5Z" clip-rule="evenodd"/>
</svg>
